X: 41067
T: Trip To Nenagh, The
R: reel
M: 4/4
K: Dmixolydian
|:d2AG FDDC|A,DFA dcAG|A2dc d=fed|=c2Gc EcGc|
d2AG FDDC|A,DFA dcAG|Add2 ADFA|G2EG FDD2:|
|:d2fd Adfa|gfe^c ABce|d2AG FDDD|EGAB =c2AG|
Addc dfed|(3B^cd ef gefg|a2ea ^caec|dBAG FDDD:|

